assets/svg/success.svg

<?xml version="1.0" encoding="UTF-8"?>
<svg width="1000px" height="1000px" viewBox="0 0 1000 1000" version="1.1" xmlns="http://www.w3.org/2000/svg" xmlns:xlink="http://www.w3.org/1999/xlink">
    <!-- Generator: sketchtool 52.4 (67378) - http://www.bohemiancoding.com/sketch -->
    <title>success</title>
    <desc>Created with sketchtool.</desc>
    <g id="新版图标" stroke="none" stroke-width="1" fill="none" fill-rule="evenodd">
        <g id="success" fill="#323233" fill-rule="nonzero">
            <g id="成功">
                <path d="M119.414815,524.046333 C109.706936,514.352802 108.137203,499.280178 116.694275,488.492403 L136.702201,463.268705 C144.903391,452.929585 160.244644,450.332803 171.087956,457.570159 L344.262613,573.15538 C353.39744,579.25241 369.118501,578.45836 377.647316,571.538939 L835.247382,200.28839 C845.53269,191.943929 861.643951,192.65512 870.659008,201.656853 L881.930792,212.911978 C891.740174,222.706862 891.027073,238.255046 880.743933,248.522988 L389.604348,738.93669 C374.323707,754.194748 349.235315,753.527169 333.505413,737.820515 L119.414815,524.046333 Z" id="Fill-"></path>
            </g>
        </g>
    </g>
</svg>

<svg width="1000" height="1000" xmlns="http://www.w3.org/2000/svg"><path d="M119.415 524.046c-9.708-9.693-11.278-24.766-2.72-35.554l20.007-25.223c8.201-10.34 23.543-12.936 34.386-5.699l173.175 115.585c9.134 6.097 24.856 5.303 33.384-1.616l457.6-371.25c10.286-8.345 26.397-7.634 35.412 1.368l11.272 11.255c9.81 9.795 9.096 25.343-1.187 35.611l-491.14 490.414c-15.28 15.258-40.369 14.59-56.099-1.116l-214.09-213.775z" fill="#323233" fill-rule="nonzero"/></svg>
